public/avatar/hat/16.svg

<svg xmlns:xlink="http://www.w3.org/1999/xlink" height="92.9" width="100.7" xmlns="http://www.w3.org/2000/svg"><use height="21.45" transform="translate(24.4 35.95)" width="26.95" xlink:href="#a"/><defs><use height="21.45" width="26.95" xlink:href="#b" id="a"/><g id="b"><path d="M-13-1.95q1-2.65 3.8-4.75Q-7-3.35-3.3-1.45l2.05.85-1.2.2Q-8.15.65-13-1.95m7.8-7.1q4.55-2.05 9.55-1.25 2.7.55 5.35 1.95-.95 1.85-2.45 3.3Q5.6-3.55 3.8-2.5l-1.95-1q-3.9-2.1-7.05-5.55" fill="#f03" fill-rule="evenodd" transform="translate(13.5 11)"/><path d="m9.7-8.35 1.95 2.15q.65.95 1.1 3 .45 2-.1 5.2-.55 3.15-3.55 5.55T.6 10.4q-5.1.25-9.8-1.75l-.2-.25Q3.45 6.9 11.65-6.2.9 5.25-11.3 5.6q-1.8-3.45-1.7-7.55Q-8.15.65-2.45-.4l1.2-.2Q1.4-1.15 3.8-2.5q1.8-1.05 3.45-2.55 1.5-1.45 2.45-3.3" fill="#f36" fill-rule="evenodd" transform="translate(13.5 11)"/><path d="m-9.2-6.7 2.6-1.7 1.4-.65Q-2.05-5.6 1.85-3.5l1.95 1Q1.4-1.15-1.25-.6l-2.05-.85Q-7-3.35-9.2-6.7" fill="#c00" fill-rule="evenodd" transform="translate(13.5 11)"/><path d="m-9.4 8.4-.55-.7-1.35-2.1Q.9 5.25 11.65-6.2 3.45 6.9-9.4 8.4" fill="#f69" fill-rule="evenodd" transform="translate(13.5 11)"/><path d="m9.7-8.35 1.95 2.15q.65.95 1.1 3 .45 2-.1 5.2-.55 3.15-3.55 5.55m-18.5.85-.55-.7-1.35-2.1q-1.8-3.45-1.7-7.55 1-2.65 3.8-4.75l2.6-1.7 1.4-.65q4.55-2.05 9.55-1.25 2.7.55 5.35 1.95Z" fill="none" stroke="#600" stroke-linecap="round" stroke-linejoin="round" transform="translate(13.5 11)"/></g></defs></svg>

<?xml version="1.0" encoding="UTF-8" standalone="no"?>
<svg xmlns:xlink="http://www.w3.org/1999/xlink" height="92.9px" width="100.7px" xmlns="http://www.w3.org/2000/svg">
  <g transform="matrix(1.0, 0.0, 0.0, 1.0, 38.65, 49.75)">
    <use height="21.45" transform="matrix(1.0, 0.0, 0.0, 1.0, -14.25, -13.8)" width="26.95" xlink:href="#sprite0"/>
  </g>
  <defs>
    <g id="sprite0" transform="matrix(1.0, 0.0, 0.0, 1.0, 13.5, 11.0)">
      <use height="21.45" transform="matrix(1.0, 0.0, 0.0, 1.0, -13.5, -11.0)" width="26.95" xlink:href="#shape0"/>
    </g>
    <g id="shape0" transform="matrix(1.0, 0.0, 0.0, 1.0, 13.5, 11.0)">
      <path d="M-13.0 -1.95 Q-12.0 -4.6 -9.2 -6.7 -7.0 -3.35 -3.3 -1.45 L-1.25 -0.6 -2.45 -0.4 Q-8.15 0.65 -13.0 -1.95 M-5.2 -9.05 Q-0.65 -11.1 4.35 -10.3 7.05 -9.75 9.7 -8.35 8.75 -6.5 7.25 -5.05 5.6 -3.55 3.8 -2.5 L1.85 -3.5 Q-2.05 -5.6 -5.2 -9.05" fill="#ff0033" fill-rule="evenodd" stroke="none"/>
      <path d="M9.7 -8.35 L11.65 -6.2 Q12.3 -5.25 12.75 -3.2 13.2 -1.2 12.65 2.0 12.1 5.15 9.1 7.55 6.1 9.95 0.6 10.4 -4.5 10.65 -9.2 8.65 L-9.4 8.4 Q3.45 6.9 11.65 -6.2 0.9 5.25 -11.3 5.6 -13.1 2.15 -13.0 -1.95 -8.15 0.65 -2.45 -0.4 L-1.25 -0.6 Q1.4 -1.15 3.8 -2.5 5.6 -3.55 7.25 -5.05 8.75 -6.5 9.7 -8.35" fill="#ff3366" fill-rule="evenodd" stroke="none"/>
      <path d="M-9.2 -6.7 L-6.6 -8.4 -5.2 -9.05 Q-2.05 -5.6 1.85 -3.5 L3.8 -2.5 Q1.4 -1.15 -1.25 -0.6 L-3.3 -1.45 Q-7.0 -3.35 -9.2 -6.7" fill="#cc0000" fill-rule="evenodd" stroke="none"/>
      <path d="M-9.4 8.4 L-9.95 7.7 -11.3 5.6 Q0.9 5.25 11.65 -6.2 3.45 6.9 -9.4 8.4" fill="#ff6699" fill-rule="evenodd" stroke="none"/>
      <path d="M9.7 -8.35 L11.65 -6.2 Q12.3 -5.25 12.75 -3.2 13.2 -1.2 12.65 2.0 12.1 5.15 9.1 7.55 M-9.4 8.4 L-9.95 7.7 -11.3 5.6 Q-13.1 2.15 -13.0 -1.95 -12.0 -4.6 -9.2 -6.7 L-6.6 -8.4 -5.2 -9.05 Q-0.65 -11.1 4.35 -10.3 7.05 -9.75 9.7 -8.35 Z" fill="none" stroke="#660000" stroke-linecap="round" stroke-linejoin="round" stroke-width="1.0"/>
    </g>
  </defs>
</svg>
